styles/2/Numix/22/places/default-folder-rss.svg

<?xml version="1.0" encoding="UTF-8" standalone="no"?>
<!-- Created with Inkscape (http://www.inkscape.org/) -->

<svg
   xmlns:dc="http://purl.org/dc/elements/1.1/"
   xmlns:cc="http://creativecommons.org/ns#"
   xmlns:rdf="http://www.w3.org/1999/02/22-rdf-syntax-ns#"
   xmlns:svg="http://www.w3.org/2000/svg"
   xmlns="http://www.w3.org/2000/svg"
   xmlns:sodipodi="http://sodipodi.sourceforge.net/DTD/sodipodi-0.dtd"
   xmlns:inkscape="http://www.inkscape.org/namespaces/inkscape"
   width="22"
   height="22"
   id="svg2"
   version="1.1"
   inkscape:version="0.91 r"
   sodipodi:docname="default-folder-rss.svg"
   inkscape:export-filename="/media/Data/Main/Visuals/Icons/Numix/Desktop/repos/numix-wiki/Gjorgi/Numix-folders/48/New/folder-144.png"
   inkscape:export-xdpi="270"
   inkscape:export-ydpi="270">
  <defs
     id="defs4" />
  <sodipodi:namedview
     id="base"
     pagecolor="#ffffff"
     bordercolor="#666666"
     borderopacity="1.0"
     inkscape:pageopacity="0.0"
     inkscape:pageshadow="2"
     inkscape:zoom="22.60317"
     inkscape:cx="8.021235"
     inkscape:cy="10.839225"
     inkscape:document-units="px"
     inkscape:current-layer="layer1"
     showgrid="true"
     inkscape:window-width="1280"
     inkscape:window-height="998"
     inkscape:window-x="0"
     inkscape:window-y="0"
     inkscape:window-maximized="1"
     showguides="true"
     inkscape:guide-bbox="true">
    <inkscape:grid
       type="xygrid"
       id="grid2985"
       empspacing="5"
       visible="true"
       enabled="true"
       snapvisiblegridlinesonly="true" />
  </sodipodi:namedview>
  <metadata
     id="metadata7">
    <rdf:RDF>
      <cc:Work
         rdf:about="">
        <dc:format>image/svg+xml</dc:format>
        <dc:type
           rdf:resource="http://purl.org/dc/dcmitype/StillImage" />
        <dc:title />
      </cc:Work>
    </rdf:RDF>
  </metadata>
  <g
     inkscape:label="Layer 1"
     inkscape:groupmode="layer"
     id="layer1"
     transform="translate(0,-1030.3622)">
    <path
       style="font-size:medium;font-style:normal;font-variant:normal;font-weight:normal;font-stretch:normal;text-indent:0;text-align:start;text-decoration:none;line-height:normal;letter-spacing:normal;word-spacing:normal;text-transform:none;direction:ltr;block-progression:tb;writing-mode:lr-tb;text-anchor:start;baseline-shift:baseline;color:#000000;fill:#e9b080;fill-opacity:1;fill-rule:nonzero;stroke:none;stroke-width:1.03313816;marker:none;visibility:visible;display:inline;overflow:visible;enable-background:accumulate;font-family:Sans;-inkscape-font-specification:Sans"
       d="m 3.0000118,1032.3622 c -0.547331,0 -1,0.4097 -1,1 l 0,1 -1,0 c -0.50192753,0 -1.000000226667,0.3847 -1.000000226667,1 -1.53399997e-5,4.5937 0,9.4063 0,14 0,0.5458 0.493417296667,1 1.000000226667,1 l 20.0000002,0 c 0.515688,0 1,-0.437 1,-1 l 0,-13 c 0,-0.577 -0.423105,-1 -1,-1 l -2,0 0,-2 c 0,-0.4874 -0.401824,-1 -1,-1 z"
       id="path2995"
       inkscape:connector-curvature="0"
       sodipodi:nodetypes="ccccccssssscssc" />
    <path
       style="font-size:medium;font-style:normal;font-variant:normal;font-weight:normal;font-stretch:normal;text-indent:0;text-align:start;text-decoration:none;line-height:normal;letter-spacing:normal;word-spacing:normal;text-transform:none;direction:ltr;block-progression:tb;writing-mode:lr-tb;text-anchor:start;baseline-shift:baseline;color:#000000;fill:#000000;fill-opacity:0.32156863;fill-rule:nonzero;stroke:none;stroke-width:1.03313816;marker:none;visibility:visible;display:inline;overflow:visible;enable-background:accumulate;font-family:Sans;-inkscape-font-specification:Sans"
       d="m 3.0000118,1032.3622 c -0.544455,0 -1,0.3989 -1,1 l 0,1 -1,0 c -0.50675973,0 -1.000000226667,0.3965 -1.000000226667,1 -2.604e-5,4.5937 0,9.4063 0,14 0,0.4872 0.419198496667,1 1.000000226667,1 l 20.0000002,0 c 0.521212,0 1,-0.4426 1,-1 l 0,-13 c 0,-0.5731 -0.393904,-1 -1,-1 l -2,0 0,-2 c 0,-0.5585 -0.457433,-1 -1,-1 z m 10.0000002,3 0,1 8,0 0,13 -20.0000002,0 0,-14 z"
       id="path3786"
       inkscape:connector-curvature="0"
       sodipodi:nodetypes="ssccccssssscsssccccccc" />
    <path
       style="fill:#000000;fill-opacity:0.32156864000000002;fill-rule:nonzero;stroke:none;opacity:1"
       d="M 6 8 L 6 10 C 10.227771 10.4668 14.016741 13.7979 14 18 L 16 18 C 16 11.9973 10.609318 8.19 6 8 z M 6 11 L 6 13 C 8.291105 13.1884 10.97445 15.3267 11 18 L 13 18 C 12.90035 13.9236 8.845905 11.2894 6 11 z M 7.5 15 C 6.6715729 15 6 15.671573 6 16.5 C 6 17.328427 6.6715729 18 7.5 18 C 8.3284271 18 9 17.328427 9 16.5 C 9 15.671573 8.3284271 15 7.5 15 z "
       transform="translate(0,1030.3622)"
       id="path3394" />
  </g>
</svg>

<!-- Created with Inkscape (http://www.inkscape.org/) -->
<svg xmlns="http://www.w3.org/2000/svg" viewBox="0 0 22 22">
 <g transform="translate(0,-1030.3622)">
  <path d="m 3 1032.36 c -0.547 0 -1 0.41 -1 1 l 0 1 -1 0 c -0.502 0 -1 0.385 -1 1 0 4.594 0 9.406 0 14 0 0.546 0.493 1 1 1 l 20 0 c 0.516 0 1 -0.437 1 -1 l 0 -13 c 0 -0.577 -0.423 -1 -1 -1 l -2 0 0 -2 c 0 -0.487 -0.402 -1 -1 -1 z" style="visibility:visible;fill:#e9b080;fill-opacity:1;stroke:none;display:inline;color:#000;fill-rule:nonzero"/>
  <path d="m 3 1032.36 c -0.544 0 -1 0.399 -1 1 l 0 1 -1 0 c -0.507 0 -1 0.397 -1 1 0 4.594 0 9.406 0 14 0 0.487 0.419 1 1 1 l 20 0 c 0.521 0 1 -0.443 1 -1 l 0 -13 c 0 -0.573 -0.394 -1 -1 -1 l -2 0 0 -2 c 0 -0.559 -0.457 -1 -1 -1 z m 10 3 0 1 8 0 0 13 -20 0 0 -14 z" style="visibility:visible;fill:#000;fill-opacity:0.322;stroke:none;display:inline;color:#000;fill-rule:nonzero"/>
  <path d="m 6 8 l 0 2 c 4.228 0.467 8.02 3.798 8 8 l 2 0 c 0 -6 -5.391 -9.81 -10 -10 z m 0 3 l 0 2 c 2.291 0.188 4.974 2.327 5 5 l 2 0 c -0.1 -4.076 -4.154 -6.711 -7 -7 z m 1.5 4 c -0.828 0 -1.5 0.672 -1.5 1.5 c 0 0.828 0.672 1.5 1.5 1.5 c 0.828 0 1.5 -0.672 1.5 -1.5 c 0 -0.828 -0.672 -1.5 -1.5 -1.5 z" transform="translate(0,1030.3622)" style="fill:#000;opacity:1;fill-opacity:0.322;stroke:none;fill-rule:nonzero"/>
 </g>
</svg>
